X:21
L:1/8
M:2/2
K:D
 A,2 | F4 G>FG>B | A2 d2 dcB>A | F4 G>FGB | E6 A,2 | F4 G>FG>B | A2 d2 f2 e2 | d>AF>A B>GE>C | 
 D6 || (3dcd | e2 d2 F3 d | c2 B2 E4 | C>DE>F G>AB>c | (3efe (3dcB A2 (3dcd | e2 d2 F3 d | 
 c2 B2 E4 | C>DE>F G>AB>c | (3dcd f>e d2 :|

